X:19
T:April Snow
R:jig
C:Henrik Norbeck
H:4/4 2015
M:6/8
L:1/8
K:Ador
~A3 AEG | AEG AEG | ~e3 dBA | BAG EFG |
~A3 AEG | AEG ABd | ~e3 dBG | BAG A3 :|
|: ~a3 ged | edB ABd | ~e3 dBA | Bde gab |
~a3 ged | edB ABd | ~e3 dBG | BAG A3 :|

